X:1
T:25 Lieder
T:Die Liebe
T:14. Die Liebe 
T:Corona Elisabeth Wilhelmine Schröter
T: Ludwig Heinrich Christoph Hölty
T:25 Lieder
T:NOTES TO TRANSCRIBER: 1. Full German text for the extra lyric verses of Die Liebe is available on Lieder.net: https://www.lieder.net/lieder/get_text.html?TextId=72320 2. Please transcribe into the Soprano clef, as published in the original IMSLP edition: the reviewer will convert staves to Treble clef before the score is published to the Lieder Corpus. 3. The last few measures (starting "pia") should be notated in Piano RH - not in the Voice stave. 
T:Creative Commons copyright waiver (CC0 1.0 Universal)
C:Corona Elisabeth Wilhelmine Schröter
Z:Ludwig Heinrich Christoph Hölty
Z:Creative Commons copyright waiver (CC0 1.0 Universal)
L:1/8
Q:1/4=116
M:2/4
K:Eb
V:1 alto1 nm="Singstimme\nVoice"
V:1
"^Mit Begeisterung, doch nicht zu geschwind" B/ B/ | (3gfe (3dc B | B3 B | (3Bc B{B} (3AG A | %4
w: Die- se|Erd' * * ist * so|schön, wann|sie * der Lenz * be-|
 G2 B B | B3 A/ F/ | E2 B2- | (3B d e (3fe d | e2 z2 | g2 f2 | e>=B (3cd e | (f2 _e2) | d2 z2 | %13
w: blümt, und der|sil- ber- ne|Mond hin-|* ter dem Wal- * de|steht;|ist ein|ir- * di- * scher|Him- *|mel,|
 e2 e2 | (3edc (3cB A | (3GAB{B} (3AG F | E2 z2 | z4 | z4 | z2 |] %20
w: gleicht den|Tha- * * len * der|Se- * * * * li-|gen.||||

